Numix-Light/16/status/indicator-keyboard-Ki.svg

<?xml version="1.0" encoding="UTF-8" standalone="no"?>
<svg
   xmlns:dc="http://purl.org/dc/elements/1.1/"
   xmlns:cc="http://creativecommons.org/ns#"
   xmlns:rdf="http://www.w3.org/1999/02/22-rdf-syntax-ns#"
   xmlns:svg="http://www.w3.org/2000/svg"
   xmlns="http://www.w3.org/2000/svg"
   xmlns:sodipodi="http://sodipodi.sourceforge.net/DTD/sodipodi-0.dtd"
   xmlns:inkscape="http://www.inkscape.org/namespaces/inkscape"
   viewBox="0 0 16 16"
   id="svg2"
   version="1.1"
   inkscape:version="0.91 r13725"
   sodipodi:docname="indicator-keyboard-Ki.svg">
  <metadata
     id="metadata13">
    <rdf:RDF>
      <cc:Work
         rdf:about="">
        <dc:format>image/svg+xml</dc:format>
        <dc:type
           rdf:resource="http://purl.org/dc/dcmitype/StillImage" />
      </cc:Work>
    </rdf:RDF>
  </metadata>
  <defs
     id="defs11" />
  <sodipodi:namedview
     pagecolor="#ffffff"
     bordercolor="#666666"
     borderopacity="1"
     objecttolerance="10"
     gridtolerance="10"
     guidetolerance="10"
     inkscape:pageopacity="0"
     inkscape:pageshadow="2"
     inkscape:window-width="640"
     inkscape:window-height="480"
     id="namedview9"
     showgrid="false"
     inkscape:zoom="14.75"
     inkscape:cx="8"
     inkscape:cy="8"
     inkscape:window-x="65"
     inkscape:window-y="24"
     inkscape:window-maximized="0"
     inkscape:current-layer="svg2" />
  <path
     style="fill:#353535;fill-opacity:1"
     d="M 1.5996094 0 C 0.71320937 2.9605947e-16 0 0.71320937 0 1.5996094 L 0 14.400391 C 2.9605947e-16 15.286791 0.71320937 16 1.5996094 16 L 14.400391 16 C 15.286791 16 16 15.286791 16 14.400391 L 16 1.5996094 C 16 0.71320937 15.286791 0 14.400391 0 L 1.5996094 0 z M 10.607422 4.7460938 C 10.727422 4.7460938 10.830063 4.7890469 10.914062 4.8730469 C 10.998063 4.9510469 11.041016 5.0592656 11.041016 5.1972656 C 11.041016 5.3352656 10.998063 5.4452969 10.914062 5.5292969 C 10.830063 5.6072969 10.727422 5.6464844 10.607422 5.6464844 C 10.487422 5.6464844 10.386734 5.6072969 10.302734 5.5292969 C 10.218734 5.4452969 10.175781 5.3352656 10.175781 5.1972656 C 10.175781 5.0592656 10.218734 4.9510469 10.302734 4.8730469 C 10.386734 4.7890469 10.487422 4.7460938 10.607422 4.7460938 z M 4.9589844 5.015625 L 5.5722656 5.015625 L 5.5722656 7.9238281 C 5.8002656 7.7198281 6.052125 7.4847031 6.328125 7.2207031 C 6.610125 6.9507031 6.88625 6.6821094 7.15625 6.4121094 C 7.43225 6.1421094 7.6896875 5.8827187 7.9296875 5.6367188 C 8.1696875 5.3907187 8.3618594 5.183625 8.5058594 5.015625 L 9.2441406 5.015625 C 9.0701406 5.201625 8.8592812 5.4236406 8.6132812 5.6816406 C 8.3672812 5.9336406 8.1060781 6.1948438 7.8300781 6.4648438 C 7.5540781 6.7348437 7.2779531 7.001625 7.0019531 7.265625 C 6.7319531 7.523625 6.4894375 7.7531719 6.2734375 7.9511719 C 6.4474375 8.0591719 6.6340312 8.1934687 6.8320312 8.3554688 C 7.0360312 8.5114687 7.2393594 8.6849531 7.4433594 8.8769531 C 7.6533594 9.0629531 7.8586406 9.2607031 8.0566406 9.4707031 C 8.2606406 9.6747031 8.4490469 9.8817969 8.6230469 10.091797 C 8.8030469 10.301797 8.9616094 10.507078 9.0996094 10.705078 C 9.2436094 10.903078 9.3611719 11.085906 9.4511719 11.253906 L 8.7675781 11.253906 C 8.5635781 10.941906 8.3322188 10.632172 8.0742188 10.326172 C 7.8222187 10.020172 7.5554375 9.7328906 7.2734375 9.4628906 C 6.9914375 9.1928906 6.7022031 8.9466094 6.4082031 8.7246094 C 6.1202031 8.5026094 5.8422656 8.3160156 5.5722656 8.1660156 L 5.5722656 11.253906 L 4.9589844 11.253906 L 4.9589844 5.015625 z M 10.320312 6.5996094 L 10.904297 6.5996094 L 10.904297 11.253906 L 10.320312 11.253906 L 10.320312 6.5996094 z "
     id="path4" />
</svg>

<svg xmlns="http://www.w3.org/2000/svg" viewBox="0 0 16 16">
 <path d="m 1.6 0 c -0.886 0 -1.6 0.713 -1.6 1.6 l 0 12.801 c 0 0.886 0.713 1.6 1.6 1.6 l 12.801 0 c 0.886 0 1.6 -0.713 1.6 -1.6 l 0 -12.801 c 0 -0.886 -0.713 -1.6 -1.6 -1.6 l -12.801 0 z m 9.01 4.746 c 0.12 0 0.223 0.043 0.307 0.127 c 0.084 0.078 0.127 0.186 0.127 0.324 c 0 0.138 -0.043 0.248 -0.127 0.332 c -0.084 0.078 -0.187 0.117 -0.307 0.117 c -0.12 0 -0.221 -0.039 -0.305 -0.117 c -0.084 -0.084 -0.127 -0.194 -0.127 -0.332 c 0 -0.138 0.043 -0.246 0.127 -0.324 c 0.084 -0.084 0.185 -0.127 0.305 -0.127 z m -5.648 0.27 l 0.613 0 l 0 2.908 c 0.228 -0.204 0.48 -0.439 0.756 -0.703 c 0.282 -0.27 0.558 -0.539 0.828 -0.809 c 0.276 -0.27 0.533 -0.529 0.773 -0.775 c 0.24 -0.246 0.432 -0.453 0.576 -0.621 l 0.738 0 c -0.174 0.186 -0.385 0.408 -0.631 0.666 c -0.246 0.252 -0.507 0.513 -0.783 0.783 c -0.276 0.27 -0.552 0.537 -0.828 0.801 c -0.27 0.258 -0.513 0.488 -0.729 0.686 c 0.174 0.108 0.361 0.242 0.559 0.404 c 0.204 0.156 0.407 0.329 0.611 0.521 c 0.21 0.186 0.415 0.384 0.613 0.594 c 0.204 0.204 0.392 0.411 0.566 0.621 c 0.18 0.21 0.339 0.415 0.477 0.613 c 0.144 0.198 0.262 0.381 0.352 0.549 l -0.684 0 c -0.204 -0.312 -0.435 -0.622 -0.693 -0.928 c -0.252 -0.306 -0.519 -0.593 -0.801 -0.863 c -0.282 -0.27 -0.571 -0.516 -0.865 -0.738 c -0.288 -0.222 -0.566 -0.409 -0.836 -0.559 l 0 3.088 l -0.613 0 l 0 -6.238 z m 5.361 1.584 l 0.584 0 l 0 4.654 l -0.584 0 l 0 -4.654 z" style="fill:#353535;fill-opacity:1"/>
</svg>
